rospo-icon-theme-classic-common/24x24/apps/charles-proxy.svg

<svg height="24" width="24" xmlns="http://www.w3.org/2000/svg"><path d="m8.1445312 2.5015331c-.7300934.0166664-1.3316598.1130607-1.9101562.3046875-.3612699.1196726-.8091325.2964743-.982199.4179688-.1270378.0891762-.2324221.2919506-.2324221.4492187 0 .0827.039814.219411.085937.2929688.01908.030433.234802.1625463.3561953.2929687.121399.130423.2639836.2867922.3183598.3476563 1.004436 1.124214 1.1657132 2.1829113 1.219754 3.4941406-.069016.6783587-.2470872 1.351958-.8007812 1.9785155-1.1629621 1.459613-1.5467581 2.065966-1.9121094 3.017578-.1442346.375682-.2229406.69372-.2695313 1.082032-.022857.189152-.02322.844274 0 1.160156.072414.985047.2663611 1.879541.6035157 2.777344.037551.09999.092915.248633.1230468.330078.3057947.825663.9924974 1.949327 1.6738282 2.74414.1636964.190959.6258374.650072.8652343.859375.2871018.251013.5910187.410956.8457031.441407v-.002c.057385.0068 1.4969078.01176 3.1972658.0098l3.089844-.0039.115234-.0332c.248829-.07275.569875-.266174.824219-.498047.06539-.05961.225597-.222209.355469-.361328.843087-.903142 2.01138-2.231522 2.466796-3.335938.425258-1.031276.621668-1.733892.732422-2.609375.130392-1.030731.07283-1.724755-.205078-2.417969-.215984-.484401-.678873-.996723-.688728-1.55664.000103-.220623.005-.299575.0293-.386719.06486-.232463.183739-.44602.352792-.642578.04112-.04783.240642-.249241.443359-.449219.482168-.4756509.638063-.6712911.824219-1.033203.150158-.2919175.259519-.6385781.310546-.9863281.0323-.2187051.03101-.6333067-.002-.8554688-.189028-1.2732586-1.143006-2.4178991-2.400347-2.7265595-.35464-.0870618-.669621-.0906707-1.753907-.1035156-1.491975-.0187748-3.167289-.1910273-4.583984-1.0644531-.895533-.4627711-1.205874-.6027474-1.6308592-.7363281-.5142808-.1616463-.8699293-.2107555-1.4609376-.1972657zm7.6230468 3.9980469c.441197.000345.654061.00577.753906.019531.522774.072052.963661.3128862 1.232422.671875.245774.3282908.311076.7131629.181641 1.0742188-.10398.2900766-.219766.4177738-.736328.8242188-.528124.4155516-.712779.5870179-.898438.8300783-.03354.043936-.07176.080078-.08398.080078-.01219 0-.05605-.036146-.09766-.080078l-.167969-.1757813c-.443363-.467625-.776164-.8927735-.88086-1.125-.04235-.093883-.05258-.1462221-.06445-.328125-.03115-.4765584.0566-1.658689.13086-1.7675781.01531-.022475.06324-.023877.630856-.023437z" opacity=".2"/><path d="m8.1445312 2.0019531c-.7300934.0166664-1.3316598.1130607-1.9101562.3046875-.3612699.1196726-.8091325.2964743-.982199.4179688-.1270378.0891762-.2324221.2919506-.2324221.4492187 0 .0827.039814.219411.085937.2929688.01908.030433.234802.1625463.3561953.2929687.121399.130423.2639836.2867922.3183598.3476563 1.004436 1.124214 1.1657132 2.1829113 1.219754 3.4941406-.069016.6783587-.2470872 1.351958-.8007812 1.9785156-1.1629621 1.4596129-1.5467581 2.0659659-1.9121094 3.0175779-.1442346.375682-.2229406.69372-.2695313 1.082032-.022857.189152-.02322.844274 0 1.160156.072414.985047.2663611 1.879541.6035157 2.777344.037551.09999.092915.248633.1230468.330078.3057947.825663.9924974 1.949327 1.6738282 2.74414.1636964.190959.6258374.650072.8652343.859375.2871018.251013.5910187.410956.8457031.441407v-.002c.057385.0068 1.4969078.01176 3.1972658.0098l3.089844-.0039.115234-.0332c.248829-.07275.569875-.266174.824219-.498047.06539-.05961.225597-.222209.355469-.361328.843087-.903142 2.01138-2.231522 2.466796-3.335938.425258-1.031276.621668-1.733892.732422-2.609375.130392-1.030731.07283-1.724755-.205078-2.417969-.215984-.484401-.678873-.996723-.688728-1.55664.000103-.220623.005-.299575.0293-.386719.06486-.232463.183739-.44602.352792-.642578.04112-.04783.240642-.2492406.443359-.4492189.482168-.475651.638063-.6712912.824219-1.0332031.150158-.2919175.259519-.6385781.310546-.9863281.0323-.2187051.03101-.6333067-.002-.8554688-.189028-1.2732586-1.143006-2.4178991-2.400347-2.7265595-.35464-.0870618-.669621-.0906707-1.753907-.1035156-1.491975-.0187748-3.167289-.1910273-4.583984-1.0644531-.895533-.4627711-1.205874-.6027474-1.6308592-.7363281-.5142808-.1616463-.8699293-.2107555-1.4609376-.1972657zm7.6230468 3.9980469c.441197.000345.654061.00577.753906.019531.522774.072052.963661.3128862 1.232422.671875.245774.3282908.311076.7131629.181641 1.0742188-.10398.2900766-.219766.4177738-.736328.8242188-.528124.4155516-.712779.5870179-.898438.8300783-.03354.043936-.071764.0800781-.083984.0800781-.01219 0-.05605-.036146-.09766-.080078l-.167965-.1757814c-.443363-.467625-.776164-.8927735-.88086-1.125-.04235-.093883-.05258-.1462221-.06445-.328125-.03115-.4765584.0566-1.658689.13086-1.7675781.015307-.022475.063245-.0238775.630856-.0234375z" fill="#e4e4e4"/><path d="m14.06804 19.121497c-.905106-.522563-3.797169-3.831135-3.797169-3.831135s4.311339.850315 5.216444 1.372878c.905106.522562 1.165747 1.765602.929201 2.175312s-1.443371.805508-2.348476.282945z" opacity=".2"/><path d="m14.06804 18.621497c-.905106-.522563-3.797169-3.831135-3.797169-3.831135s4.311339.850315 5.216444 1.372878c.905106.522562 1.165747 1.765602.929201 2.175312s-1.443371.805508-2.348476.282945z" fill="#4670c8"/><path d="m15.52311 16.391354c-1.009514.270498-5.394025-.02402-5.394025-.02402s3.649839-2.447315 4.659353-2.717813 2.072778.424163 2.195223.881134c.122445.456972-.451038 1.590198-1.460551 1.860697z" opacity=".2"/><path d="m15.52311 15.891354c-1.009514.270498-5.394025-.02402-5.394025-.02402s3.649839-2.447315 4.659353-2.717813 2.072778.424163 2.195223.881134c.122445.456972-.451038 1.590198-1.460551 1.860697z" fill="#4ab6e7"/><path d="m14.621497 13.431961c-.522563.905106-3.831135 3.797168-3.831135 3.797168s.850314-4.311338 1.372877-5.216444c.522563-.905105 1.765603-1.165746 2.175313-.9292.409709.236545.805508 1.44337.282945 2.348476z" opacity=".2"/><path d="m14.621497 12.931961c-.522563.905106-3.831135 3.797168-3.831135 3.797168s.850314-4.311338 1.372877-5.216444c.522563-.905105 1.765603-1.165746 2.175313-.9292.409709.236545.805508 1.44337.282945 2.348476z" fill="#4670c8"/><path d="m7.5126851 15.336761c.9051056.522563 5.2164439 1.372877 5.2164439 1.372877s-2.8920627-3.308571-3.7971682-3.831134c-.9051056-.522563-2.1119303-.126765-2.3484764.282945s.024095 1.652749.9292007 2.175312z" opacity=".2"/><path d="m7.5126851 14.836761c.9051056.522563 5.2164439 1.372877 5.2164439 1.372877s-2.8920627-3.308571-3.7971682-3.831134c-.9051056-.522563-2.1119303-.126765-2.3484764.282945s.024095 1.652749.9292007 2.175312z" fill="#4670c8"/><path d="m9.1495232 12.711562c.2704983 1.009514 2.7178128 4.659354 2.7178128 4.659354s.294517-4.384512.02402-5.394025c-.270499-1.009514-1.403725-1.582997-1.860696-1.460552-.4569721.122446-1.1516332 1.185709-.8811348 2.195223z" opacity=".2"/><path d="m8.2115614 18.350477c1.0095148-.270498 4.6593546-2.717813 4.6593546-2.717813s-4.3845111-.294517-5.3940251-.02402c-1.0095146.270499-1.5829971 1.403725-1.4605516 1.860696.122445.456973 1.1857086 1.151633 2.1952221.881135z" opacity=".2"/><path d="m8.2115614 17.850477c1.0095148-.270498 4.6593546-2.717813 4.6593546-2.717813s-4.3845111-.294517-5.3940251-.02402c-1.0095146.270499-1.5829971 1.403725-1.4605516 1.860696.122445.456973 1.1857086 1.151633 2.1952221.881135z" fill="#4ab6e7"/><path d="m11.108647 20.02311c-.270499-1.009515.02402-5.394026.02402-5.394026s2.447314 3.64984 2.717812 4.659354c.270498 1.009515-.424163 2.072778-.881134 2.195223-.456972.122446-1.590198-.451038-1.860696-1.460551z" opacity=".2"/><path d="m11.108647 19.52311c-.270499-1.009515.02402-5.394026.02402-5.394026s2.447314 3.64984 2.717812 4.659354c.270498 1.009515-.424163 2.072778-.881134 2.195223-.456972.122446-1.590198-.451038-1.860696-1.460551z" fill="#4ab6e7"/><path d="m10.836761 19.987316c.522563-.905106 1.372877-5.216444 1.372877-5.216444s-3.3085718 2.892062-3.8311347 3.797168c-.5225629.905105-.1267647 2.11193.2829452 2.348476.409709.236546 1.6527495-.0241 2.1753125-.9292z" opacity=".2"/><path d="m10.836761 19.487316c.522563-.905106 1.372877-5.216444 1.372877-5.216444s-3.3085718 2.892062-3.8311347 3.797168c-.5225629.905105-.1267647 2.11193.2829452 2.348476.409709.236546 1.6527495-.0241 2.1753125-.9292z" fill="#4670c8"/><path d="m9.1495232 12.211562c.2704983 1.009514 2.7178128 4.659354 2.7178128 4.659354s.294517-4.384512.02402-5.394025c-.270499-1.009514-1.403725-1.5829968-1.860696-1.460552-.4569721.122446-1.1516332 1.185709-.8811348 2.195223z" fill="#4ab6e7"/><circle cx="17.959" cy="8.106" opacity=".2" r="1.5" transform="matrix(.8660254 .5 -.5 .8660254 0 0)"/><circle cx="17.709" cy="7.673" fill="#ffb22e" r="1.5" transform="matrix(.8660254 .5 -.5 .8660254 0 0)"/><path d="m8.1445312 2.0019531c-.7300933.0166664-1.3316598.1130607-1.9101562.3046875-.3612699.1196726-.8093554.2964743-.9824219.4179688-.1270378.0891762-.2324218.2919506-.2324219.4492187 0 .069474.0359342.169848.0722657.2460938.0419837-.079399.0979906-.1516744.1601562-.1953125.1730665-.1214945.621152-.2982962.9824219-.4179688.5784964-.1916268 1.1800629-.2880211 1.9101562-.3046875.5910084-.0134898.9466568.0356193 1.4609376.1972657.4249852.1335806.7353262.273557 1.6308592.7363281 1.416695.8734258 3.092009 1.0456783 4.583984 1.0644531 1.084286.0128449 1.399267.0164538 1.753907.1035156 1.257341.3086604 2.211362 1.4533039 2.40039 2.7265625.013943.0938351-.002484.2280926 0 .3613281.000302-.0020285.001656-.0038307.001953-.0058593.0323-.2187051.031057-.6333067-.001953-.8554688-.189028-1.2732586-1.143049-2.4179021-2.40039-2.7265625-.35464-.0870618-.669621-.0906707-1.753907-.1035156-1.491975-.0187748-3.167289-.1910273-4.583984-1.0644531-.895533-.4627711-1.205874-.6027475-1.6308592-.7363281-.5142808-.1616464-.8699292-.2107555-1.4609376-.1972657zm9.8183598 5.6386719c-.009725.0417418-.01256.0837598-.027344.125-.10398.2900766-.219766.4177738-.736328.8242188-.528124.4155516-.712779.5870177-.898438.8300781-.03354.043936-.071764.0800781-.083984.0800781-.01219 0-.056046-.0361461-.097656-.0800781l-.167969-.1757813c-.443363-.467625-.776164-.8927735-.88086-1.125-.035025-.0776449-.042551-.1538771-.052734-.2714844-.003087.1517077-.018479.339934-.011719.4433594.01187.1819029.022103.234242.064453.328125.104696.2322265.437497.657375.88086 1.125l.167969.1757813c.04161.043932.085466.0800781.097656.0800781.01222 0 .050444-.0361421.083984-.0800781.185659-.2430604.370314-.4145265.898438-.8300781.516562-.4064451.632348-.5341422.736328-.8242188.073716-.2056294.07732-.4187724.027344-.625zm-10.9882816.1308594c-.0816703.6206154-.2680114 1.2344457-.7753906 1.8085937-1.1629621 1.4596129-1.5467581 2.0659659-1.9121094 3.0175779-.1442346.375682-.2229406.693719-.2695313 1.082032-.0098508.08152.0014076.309837 0 .5.0465907-.388313.1252967-.70635.2695313-1.082032.3653513-.951612.7491472-1.557965 1.9121094-3.017578.553694-.6265574.7317652-1.3001568.8007812-1.9785155-.004737-.114938-.01851-.2188067-.0253906-.3300781zm11.0683596 3.5507816c-.020383.08102-.027248.155191-.027344.361328.009855.559917.473469 1.072239.689453 1.55664.162332.40492.241341.8186.259766 1.291016.036237-.702064-.042792-1.249795-.259766-1.791016-.197821-.443666-.58783-.912341-.662109-1.417968z" fill="#fff" opacity=".2"/><path d="m11.429688 14.001953a1.5 1.5 0 0 0 -1.228516.748047 1.5 1.5 0 0 0 -.179688 1 1.5 1.5 0 0 1  .179688-.5 1.5 1.5 0 0 1 2.048828-.548828 1.5 1.5 0 0 1  .728516 1.048828 1.5 1.5 0 0 0 -.728516-1.548828 1.5 1.5 0 0 0 -.820312-.199219z" fill="#fff" opacity=".2"/></svg>

<svg xmlns="http://www.w3.org/2000/svg" width="24" height="24" version="1">
 <path d="M 8.1445312,2.5015331 C 7.4144378,2.5181995 6.8128714,2.6145938 6.234375,2.8062206 5.8731051,2.9258932 5.4252425,3.1026949 5.252176,3.2241894 5.1251382,3.3133656 5.0197539,3.51614 5.0197539,3.6734081 c 0,0.0827 0.039814,0.219411 0.085937,0.2929688 0.01908,0.030433 0.234802,0.1625463 0.3561953,0.2929687 0.121399,0.130423 0.2639836,0.2867922 0.3183598,0.3476563 C 6.784682,5.7312159 6.9459592,6.7899132 7,8.1011425 6.930984,8.7795012 6.7529128,9.4531005 6.1992188,10.079658 c -1.1629621,1.459613 -1.5467581,2.065966 -1.9121094,3.017578 -0.1442346,0.375682 -0.2229406,0.69372 -0.2695313,1.082032 -0.022857,0.189152 -0.02322,0.844274 0,1.160156 0.072414,0.985047 0.2663611,1.879541 0.6035157,2.777344 0.037551,0.09999 0.092915,0.248633 0.1230468,0.330078 0.3057947,0.825663 0.9924974,1.949327 1.6738282,2.74414 0.1636964,0.190959 0.6258374,0.650072 0.8652343,0.859375 0.2871018,0.251013 0.5910187,0.410956 0.8457031,0.441407 l 0,-0.002 c 0.057385,0.0068 1.4969078,0.01176 3.1972658,0.0098 l 3.089844,-0.0039 0.115234,-0.0332 c 0.248829,-0.07275 0.569875,-0.266174 0.824219,-0.498047 0.06539,-0.05961 0.225597,-0.222209 0.355469,-0.361328 0.843087,-0.903142 2.01138,-2.231522 2.466796,-3.335938 0.425258,-1.031276 0.621668,-1.733892 0.732422,-2.609375 0.130392,-1.030731 0.07283,-1.724755 -0.205078,-2.417969 -0.215984,-0.484401 -0.678873,-0.996723 -0.688728,-1.55664 1.03e-4,-0.220623 0.005,-0.299575 0.0293,-0.386719 0.06486,-0.232463 0.183739,-0.44602 0.352792,-0.642578 0.04112,-0.04783 0.240642,-0.249241 0.443359,-0.449219 0.482168,-0.4756509 0.638063,-0.6712911 0.824219,-1.033203 0.150158,-0.2919175 0.259519,-0.6385781 0.310546,-0.9863281 0.0323,-0.2187051 0.03101,-0.6333067 -0.002,-0.8554688 C 19.785538,6.0563965 18.83156,4.911756 17.574219,4.6030956 17.219579,4.5160338 16.904598,4.5124249 15.820312,4.49958 14.328337,4.4808052 12.653023,4.3085527 11.236328,3.4351269 10.340795,2.9723558 10.030454,2.8323795 9.6054688,2.6987988 9.091188,2.5371525 8.7355395,2.4880433 8.1445312,2.5015331 Z M 15.767578,6.49958 c 0.441197,3.45e-4 0.654061,0.00577 0.753906,0.019531 0.522774,0.072052 0.963661,0.3128862 1.232422,0.671875 0.245774,0.3282908 0.311076,0.7131629 0.181641,1.0742188 -0.10398,0.2900766 -0.219766,0.4177738 -0.736328,0.8242188 -0.528124,0.4155516 -0.712779,0.5870179 -0.898438,0.8300783 -0.03354,0.043936 -0.07176,0.080078 -0.08398,0.080078 -0.01219,0 -0.05605,-0.036146 -0.09766,-0.080078 L 15.951172,9.7437206 c -0.443363,-0.467625 -0.776164,-0.8927735 -0.88086,-1.125 -0.04235,-0.093883 -0.05258,-0.1462221 -0.06445,-0.328125 -0.03115,-0.4765584 0.0566,-1.658689 0.13086,-1.7675781 0.01531,-0.022475 0.06324,-0.023877 0.630856,-0.023437 z" style="opacity:0.2"/>
 <path style="fill:#cccccc" d="M 8.1445312,2.0019531 C 7.4144378,2.0186195 6.8128714,2.1150138 6.234375,2.3066406 5.8731051,2.4263132 5.4252425,2.6031149 5.252176,2.7246094 5.1251382,2.8137856 5.0197539,3.01656 5.0197539,3.1738281 c 0,0.0827 0.039814,0.219411 0.085937,0.2929688 0.01908,0.030433 0.234802,0.1625463 0.3561953,0.2929687 0.121399,0.130423 0.2639836,0.2867922 0.3183598,0.3476563 C 6.784682,5.2316359 6.9459592,6.2903332 7,7.6015625 6.930984,8.2799212 6.7529128,8.9535205 6.1992188,9.5800781 5.0362567,11.039691 4.6524607,11.646044 4.2871094,12.597656 c -0.1442346,0.375682 -0.2229406,0.69372 -0.2695313,1.082032 -0.022857,0.189152 -0.02322,0.844274 0,1.160156 0.072414,0.985047 0.2663611,1.879541 0.6035157,2.777344 0.037551,0.09999 0.092915,0.248633 0.1230468,0.330078 0.3057947,0.825663 0.9924974,1.949327 1.6738282,2.74414 0.1636964,0.190959 0.6258374,0.650072 0.8652343,0.859375 0.2871018,0.251013 0.5910187,0.410956 0.8457031,0.441407 l 0,-0.002 c 0.057385,0.0068 1.4969078,0.01176 3.1972658,0.0098 l 3.089844,-0.0039 0.115234,-0.0332 c 0.248829,-0.07275 0.569875,-0.266174 0.824219,-0.498047 0.06539,-0.05961 0.225597,-0.222209 0.355469,-0.361328 0.843087,-0.903142 2.01138,-2.231522 2.466796,-3.335938 0.425258,-1.031276 0.621668,-1.733892 0.732422,-2.609375 0.130392,-1.030731 0.07283,-1.724755 -0.205078,-2.417969 -0.215984,-0.484401 -0.678873,-0.996723 -0.688728,-1.55664 1.03e-4,-0.220623 0.005,-0.299575 0.0293,-0.386719 0.06486,-0.232463 0.183739,-0.44602 0.352792,-0.642578 0.04112,-0.04783 0.240642,-0.2492406 0.443359,-0.4492189 0.482168,-0.475651 0.638063,-0.6712912 0.824219,-1.0332031 0.150158,-0.2919175 0.259519,-0.6385781 0.310546,-0.9863281 0.0323,-0.2187051 0.03101,-0.6333067 -0.002,-0.8554688 C 19.785538,5.5568165 18.83156,4.412176 17.574219,4.1035156 17.219579,4.0164538 16.904598,4.0128449 15.820312,4 14.328337,3.9812252 12.653023,3.8089727 11.236328,2.9355469 10.340795,2.4727758 10.030454,2.3327995 9.6054688,2.1992188 9.091188,2.0375725 8.7355395,1.9884633 8.1445312,2.0019531 Z M 15.767578,6 c 0.441197,3.45e-4 0.654061,0.00577 0.753906,0.019531 0.522774,0.072052 0.963661,0.3128862 1.232422,0.671875 0.245774,0.3282908 0.311076,0.7131629 0.181641,1.0742188 -0.10398,0.2900766 -0.219766,0.4177738 -0.736328,0.8242188 C 16.671095,9.0053952 16.48644,9.1768615 16.300781,9.4199219 16.267241,9.4638579 16.229017,9.5 16.216797,9.5 c -0.01219,0 -0.05605,-0.036146 -0.09766,-0.080078 L 15.951172,9.2441406 c -0.443363,-0.467625 -0.776164,-0.8927735 -0.88086,-1.125 -0.04235,-0.093883 -0.05258,-0.1462221 -0.06445,-0.328125 -0.03115,-0.4765584 0.0566,-1.658689 0.13086,-1.7675781 C 15.152029,6.0009625 15.199967,5.99956 15.767578,6 Z"/>
 <path style="opacity:0.2" d="m 14.06804,19.121497 c -0.905106,-0.522563 -3.797169,-3.831135 -3.797169,-3.831135 0,0 4.311339,0.850315 5.216444,1.372878 0.905106,0.522562 1.165747,1.765602 0.929201,2.175312 -0.236546,0.40971 -1.443371,0.805508 -2.348476,0.282945 z"/>
 <path d="m 14.06804,18.621497 c -0.905106,-0.522563 -3.797169,-3.831135 -3.797169,-3.831135 0,0 4.311339,0.850315 5.216444,1.372878 0.905106,0.522562 1.165747,1.765602 0.929201,2.175312 -0.236546,0.40971 -1.443371,0.805508 -2.348476,0.282945 z" style="fill:#4670c8"/>
 <path d="m 15.52311,16.391354 c -1.009514,0.270498 -5.394025,-0.02402 -5.394025,-0.02402 0,0 3.649839,-2.447315 4.659353,-2.717813 1.009514,-0.270498 2.072778,0.424163 2.195223,0.881134 0.122445,0.456972 -0.451038,1.590198 -1.460551,1.860697 z" style="opacity:0.2"/>
 <path style="fill:#4ab6e7" d="m 15.52311,15.891354 c -1.009514,0.270498 -5.394025,-0.02402 -5.394025,-0.02402 0,0 3.649839,-2.447315 4.659353,-2.717813 1.009514,-0.270498 2.072778,0.424163 2.195223,0.881134 0.122445,0.456972 -0.451038,1.590198 -1.460551,1.860697 z"/>
 <path d="m 14.621497,13.431961 c -0.522563,0.905106 -3.831135,3.797168 -3.831135,3.797168 0,0 0.850314,-4.311338 1.372877,-5.216444 0.522563,-0.905105 1.765603,-1.165746 2.175313,-0.9292 0.409709,0.236545 0.805508,1.44337 0.282945,2.348476 z" style="opacity:0.2"/>
 <path style="fill:#4670c8" d="m 14.621497,12.931961 c -0.522563,0.905106 -3.831135,3.797168 -3.831135,3.797168 0,0 0.850314,-4.311338 1.372877,-5.216444 0.522563,-0.905105 1.765603,-1.165746 2.175313,-0.9292 0.409709,0.236545 0.805508,1.44337 0.282945,2.348476 z"/>
 <path d="m 7.5126851,15.336761 c 0.9051056,0.522563 5.2164439,1.372877 5.2164439,1.372877 0,0 -2.8920627,-3.308571 -3.7971682,-3.831134 -0.9051056,-0.522563 -2.1119303,-0.126765 -2.3484764,0.282945 -0.2365461,0.40971 0.024095,1.652749 0.9292007,2.175312 z" style="opacity:0.2"/>
 <path style="fill:#4670c8" d="m 7.5126851,14.836761 c 0.9051056,0.522563 5.2164439,1.372877 5.2164439,1.372877 0,0 -2.8920627,-3.308571 -3.7971682,-3.831134 -0.9051056,-0.522563 -2.1119303,-0.126765 -2.3484764,0.282945 -0.2365461,0.40971 0.024095,1.652749 0.9292007,2.175312 z"/>
 <path style="opacity:0.2" d="m 9.1495232,12.711562 c 0.2704983,1.009514 2.7178128,4.659354 2.7178128,4.659354 0,0 0.294517,-4.384512 0.02402,-5.394025 -0.270499,-1.009514 -1.403725,-1.582997 -1.860696,-1.460552 -0.4569721,0.122446 -1.1516332,1.185709 -0.8811348,2.195223 z"/>
 <path style="opacity:0.2" d="m 8.2115614,18.350477 c 1.0095148,-0.270498 4.6593546,-2.717813 4.6593546,-2.717813 0,0 -4.3845111,-0.294517 -5.3940251,-0.02402 -1.0095146,0.270499 -1.5829971,1.403725 -1.4605516,1.860696 0.122445,0.456973 1.1857086,1.151633 2.1952221,0.881135 z"/>
 <path d="m 8.2115614,17.850477 c 1.0095148,-0.270498 4.6593546,-2.717813 4.6593546,-2.717813 0,0 -4.3845111,-0.294517 -5.3940251,-0.02402 -1.0095146,0.270499 -1.5829971,1.403725 -1.4605516,1.860696 0.122445,0.456973 1.1857086,1.151633 2.1952221,0.881135 z" style="fill:#4ab6e7"/>
 <path d="m 11.108647,20.02311 c -0.270499,-1.009515 0.02402,-5.394026 0.02402,-5.394026 0,0 2.447314,3.64984 2.717812,4.659354 0.270498,1.009515 -0.424163,2.072778 -0.881134,2.195223 -0.456972,0.122446 -1.590198,-0.451038 -1.860696,-1.460551 z" style="opacity:0.2"/>
 <path style="fill:#4ab6e7" d="m 11.108647,19.52311 c -0.270499,-1.009515 0.02402,-5.394026 0.02402,-5.394026 0,0 2.447314,3.64984 2.717812,4.659354 0.270498,1.009515 -0.424163,2.072778 -0.881134,2.195223 -0.456972,0.122446 -1.590198,-0.451038 -1.860696,-1.460551 z"/>
 <path style="opacity:0.2" d="m 10.836761,19.987316 c 0.522563,-0.905106 1.372877,-5.216444 1.372877,-5.216444 0,0 -3.3085718,2.892062 -3.8311347,3.797168 -0.5225629,0.905105 -0.1267647,2.11193 0.2829452,2.348476 0.409709,0.236546 1.6527495,-0.0241 2.1753125,-0.9292 z"/>
 <path d="m 10.836761,19.487316 c 0.522563,-0.905106 1.372877,-5.216444 1.372877,-5.216444 0,0 -3.3085718,2.892062 -3.8311347,3.797168 -0.5225629,0.905105 -0.1267647,2.11193 0.2829452,2.348476 0.409709,0.236546 1.6527495,-0.0241 2.1753125,-0.9292 z" style="fill:#4670c8"/>
 <path d="m 9.1495232,12.211562 c 0.2704983,1.009514 2.7178128,4.659354 2.7178128,4.659354 0,0 0.294517,-4.384512 0.02402,-5.394025 -0.270499,-1.009514 -1.403725,-1.5829968 -1.860696,-1.460552 -0.4569721,0.122446 -1.1516332,1.185709 -0.8811348,2.195223 z" style="fill:#4ab6e7"/>
 <circle cx="17.959" cy="8.106" r="1.5" transform="matrix(0.8660254,0.5,-0.5,0.8660254,0,0)" style="opacity:0.2"/>
 <circle style="fill:#ffb22e" cx="17.709" cy="7.673" r="1.5" transform="matrix(0.8660254,0.5,-0.5,0.8660254,0,0)"/>
 <path style="fill:#ffffff;opacity:0.2" d="M 8.1445312 2.0019531 C 7.4144379 2.0186195 6.8128714 2.1150138 6.234375 2.3066406 C 5.8731051 2.4263132 5.4250196 2.6031149 5.2519531 2.7246094 C 5.1249153 2.8137856 5.0195313 3.01656 5.0195312 3.1738281 C 5.0195312 3.2433021 5.0554654 3.3436761 5.0917969 3.4199219 C 5.1337806 3.3405229 5.1897875 3.2682475 5.2519531 3.2246094 C 5.4250196 3.1031149 5.8731051 2.9263132 6.234375 2.8066406 C 6.8128714 2.6150138 7.4144379 2.5186195 8.1445312 2.5019531 C 8.7355396 2.4884633 9.091188 2.5375724 9.6054688 2.6992188 C 10.030454 2.8327994 10.340795 2.9727758 11.236328 3.4355469 C 12.653023 4.3089727 14.328337 4.4812252 15.820312 4.5 C 16.904598 4.5128449 17.219579 4.5164538 17.574219 4.6035156 C 18.83156 4.912176 19.785581 6.0568195 19.974609 7.3300781 C 19.988552 7.4239132 19.972125 7.5581707 19.974609 7.6914062 C 19.974911 7.6893777 19.976265 7.6875755 19.976562 7.6855469 C 20.008862 7.4668418 20.007619 7.0522402 19.974609 6.8300781 C 19.785581 5.5568195 18.83156 4.412176 17.574219 4.1035156 C 17.219579 4.0164538 16.904598 4.0128449 15.820312 4 C 14.328337 3.9812252 12.653023 3.8089727 11.236328 2.9355469 C 10.340795 2.4727758 10.030454 2.3327994 9.6054688 2.1992188 C 9.091188 2.0375724 8.7355396 1.9884633 8.1445312 2.0019531 z M 17.962891 7.640625 C 17.953166 7.6823668 17.950331 7.7243848 17.935547 7.765625 C 17.831567 8.0557016 17.715781 8.1833988 17.199219 8.5898438 C 16.671095 9.0053954 16.48644 9.1768615 16.300781 9.4199219 C 16.267241 9.4638579 16.229017 9.5 16.216797 9.5 C 16.204607 9.5 16.160751 9.4638539 16.119141 9.4199219 L 15.951172 9.2441406 C 15.507809 8.7765156 15.175008 8.3513671 15.070312 8.1191406 C 15.035287 8.0414957 15.027761 7.9652635 15.017578 7.8476562 C 15.014491 7.9993639 14.999099 8.1875902 15.005859 8.2910156 C 15.017729 8.4729185 15.027962 8.5252576 15.070312 8.6191406 C 15.175008 8.8513671 15.507809 9.2765156 15.951172 9.7441406 L 16.119141 9.9199219 C 16.160751 9.9638539 16.204607 10 16.216797 10 C 16.229017 10 16.267241 9.9638579 16.300781 9.9199219 C 16.48644 9.6768615 16.671095 9.5053954 17.199219 9.0898438 C 17.715781 8.6833987 17.831567 8.5557016 17.935547 8.265625 C 18.009263 8.0599956 18.012867 7.8468526 17.962891 7.640625 z M 6.9746094 7.7714844 C 6.8929391 8.3920998 6.706598 9.0059301 6.1992188 9.5800781 C 5.0362567 11.039691 4.6524607 11.646044 4.2871094 12.597656 C 4.1428748 12.973338 4.0641688 13.291375 4.0175781 13.679688 C 4.0077273 13.761208 4.0189857 13.989525 4.0175781 14.179688 C 4.0641688 13.791375 4.1428748 13.473338 4.2871094 13.097656 C 4.6524607 12.146044 5.0362566 11.539691 6.1992188 10.080078 C 6.7529128 9.4535206 6.930984 8.7799212 7 8.1015625 C 6.995263 7.9866245 6.98149 7.8827558 6.9746094 7.7714844 z M 18.042969 11.322266 C 18.022586 11.403286 18.015721 11.477457 18.015625 11.683594 C 18.02548 12.243511 18.489094 12.755833 18.705078 13.240234 C 18.86741 13.645154 18.946419 14.058834 18.964844 14.53125 C 19.001081 13.829186 18.922052 13.281455 18.705078 12.740234 C 18.507257 12.296568 18.117248 11.827893 18.042969 11.322266 z"/>
 <path style="opacity:0.2;fill:#ffffff" d="M 11.429688 14.001953 A 1.5 1.5 0 0 0 10.201172 14.75 A 1.5 1.5 0 0 0 10.021484 15.75 A 1.5 1.5 0 0 1 10.201172 15.25 A 1.5 1.5 0 0 1 12.25 14.701172 A 1.5 1.5 0 0 1 12.978516 15.75 A 1.5 1.5 0 0 0 12.25 14.201172 A 1.5 1.5 0 0 0 11.429688 14.001953 z"/>
</svg>
